svg/system/multiselect_fill.svg

<?xml version="1.0" encoding="UTF-8"?>
<svg width="24px" height="24px" viewBox="0 0 24 24" version="1.1" xmlns="http://www.w3.org/2000/svg" xmlns:xlink="http://www.w3.org/1999/xlink">
    <title>multiselect_fill</title>
    <g id="Icon" stroke="none" stroke-width="1" fill="none" fill-rule="evenodd">
        <g id="System" transform="translate(-768.000000, -528.000000)">
            <g id="multiselect_fill" transform="translate(768.000000, 528.000000)">
                <path d="M24,0 L24,24 L0,24 L0,0 L24,0 Z M12.5935,23.2578 L12.5819,23.2595 L12.5109,23.295 L12.4919,23.2987 L12.4767,23.295 L12.4057,23.2595 C12.3958,23.2564 12.387,23.259 12.3821,23.2649 L12.378,23.2758 L12.3609,23.7031 L12.3659,23.7235 L12.3769,23.7357 L12.4805,23.8097 L12.4953,23.8136 L12.5071,23.8097 L12.6107,23.7357 L12.6233,23.7197 L12.6267,23.7031 L12.6096,23.2758 C12.6076,23.2657 12.601,23.2593 12.5935,23.2578 Z M12.8584,23.1453 L12.8445,23.1473 L12.6598,23.2397 L12.6499,23.2499 L12.6472,23.2611 L12.6651,23.6906 L12.6699,23.7034 L12.6784,23.7105 L12.8793,23.8032 C12.8914,23.8069 12.9022,23.803 12.9078,23.7952 L12.9118,23.7812 L12.8777,23.1665 C12.8753,23.1546 12.8674,23.147 12.8584,23.1453 Z M12.143,23.1473 C12.1332,23.1424 12.1222,23.1453 12.1156,23.1526 L12.1099,23.1665 L12.0758,23.7812 C12.0751,23.7927 12.0828,23.8019 12.0926,23.8046 L12.1083,23.8032 L12.3092,23.7105 L12.3186,23.7024 L12.3225,23.6906 L12.3404,23.2611 L12.3372,23.2485 L12.3278,23.2397 L12.143,23.1473 Z" id="MingCute" fill-rule="nonzero"></path>
                <path d="M20,2 C21.1046,2 22,2.89543 22,4 L22,16 C22,17.1046 21.1046,18 20,18 L17,18 L17,20 C17,21.1046 16.1046,22 15,22 L4,22 C2.89543,22 2,21.1046 2,20 L2,9 C2,7.89543 2.89543,7 4,7 L6,7 L6,4 C6,2.89543 6.89543,2 8,2 L20,2 Z M6,9 L4,9 L4,20 L15,20 L15,18 L8,18 C6.89543,18 6,17.1046 6,16 L6,9 Z M17.8892,7.23233 C17.5287385,6.87184077 16.9614793,6.84411083 16.5692027,7.14914018 L16.475,7.23233 L12.9394,10.7679 L11.5253,9.35368 C11.1348,8.96314 10.5016,8.96311 10.1111,9.35362 C9.75057385,9.71409077 9.72282402,10.2813251 10.0278191,10.6735978 L10.111,10.7678 L12.1615,12.8185 C12.5604143,13.2174143 13.1894617,13.2459082 13.6212522,12.9040617 L13.7172,12.8186 L17.8892,8.64654 C18.2797,8.25602 18.2797,7.62285 17.8892,7.23233 Z" id="形状" fill="#09244B"></path>
            </g>
        </g>
    </g>
</svg>

<svg xmlns="http://www.w3.org/2000/svg" width="24" height="24"><g fill="none" fill-rule="evenodd"><path d="M24 0v24H0V0h24ZM12.594 23.258l-.012.002-.071.035-.02.004-.014-.004-.071-.036c-.01-.003-.019 0-.024.006l-.004.01-.017.428.005.02.01.013.104.074.015.004.012-.004.104-.074.012-.016.004-.017-.017-.427c-.002-.01-.009-.017-.016-.018Zm.264-.113-.014.002-.184.093-.01.01-.003.011.018.43.005.012.008.008.201.092c.012.004.023 0 .029-.008l.004-.014-.034-.614c-.003-.012-.01-.02-.02-.022Zm-.715.002a.023.023 0 0 0-.027.006l-.006.014-.034.614c0 .012.007.02.017.024l.015-.002.201-.093.01-.008.003-.011.018-.43-.003-.012-.01-.01-.184-.092Z"/><path fill="#09244B" d="M20 2a2 2 0 0 1 2 2v12a2 2 0 0 1-2 2h-3v2a2 2 0 0 1-2 2H4a2 2 0 0 1-2-2V9a2 2 0 0 1 2-2h2V4a2 2 0 0 1 2-2h12ZM6 9H4v11h11v-2H8a2 2 0 0 1-2-2V9Zm11.89-1.768a1 1 0 0 0-1.32-.083l-.095.083-3.536 3.536-1.414-1.414a1 1 0 0 0-1.497 1.32l.083.094 2.05 2.05a1.1 1.1 0 0 0 1.46.086l.096-.085 4.172-4.172a1 1 0 0 0 0-1.415Z"/></g></svg>
